wp-content/plugins/wp-mail-smtp/assets/images/providers/mailjet.svg

<svg viewBox="0 0 99 32" fill="none" xmlns="http://www.w3.org/2000/svg">
<path d="M35.4336 26.4824V11.0342H38.7881L43.7095 20.8328L48.5646 11.0342H51.9191V26.4824H49.0943V15.8231L44.7908 24.2755H42.5619L38.2584 15.8231V26.4824H35.4336Z" fill="currentColor"/>
<path d="M57.5246 26.7473C56.5839 26.7473 55.8115 26.5955 55.2074 26.2948C54.6032 25.9942 54.1564 25.5914 53.8612 25.0921C53.566 24.5928 53.4198 24.041 53.4198 23.4369C53.4198 22.4217 53.817 21.5969 54.6115 20.9652C55.406 20.3335 56.5977 20.0162 58.1867 20.0162H60.9674V19.7514C60.9674 19.001 60.755 18.4493 60.3274 18.0962C59.8998 17.7431 59.3701 17.5666 58.7384 17.5666C58.1646 17.5666 57.6653 17.7017 57.2377 17.9748C56.8101 18.2479 56.5453 18.6479 56.4433 19.1776H53.6846C53.7591 18.3831 54.0267 17.6907 54.4901 17.1031C54.9536 16.5155 55.5522 16.0631 56.2888 15.7459C57.0253 15.4286 57.8474 15.2714 58.7605 15.2714C60.3191 15.2714 61.5495 15.6604 62.446 16.441C63.3426 17.2217 63.7922 18.3252 63.7922 19.7514V26.4824H61.3867L61.1219 24.7169C60.7991 25.3045 60.3467 25.79 59.7646 26.1735C59.1826 26.5569 58.4377 26.7473 57.5246 26.7473ZM58.1646 24.5404C58.9729 24.5404 59.6019 24.2755 60.0515 23.7459C60.5012 23.2162 60.7826 22.5624 60.9012 21.7817H58.4957C57.7453 21.7817 57.2074 21.9169 56.8846 22.19C56.5619 22.4631 56.3991 22.7969 56.3991 23.1942C56.3991 23.6217 56.5619 23.9528 56.8846 24.1873C57.2074 24.4217 57.635 24.5404 58.1646 24.5404Z" fill="currentColor"/>
<path d="M66.9039 13.8369C66.3881 13.8369 65.966 13.6824 65.635 13.3735C65.3039 13.0645 65.1384 12.6755 65.1384 12.2038C65.1384 11.7321 65.3039 11.3459 65.635 11.0452C65.966 10.7445 66.3881 10.5928 66.9039 10.5928C67.4198 10.5928 67.8419 10.7445 68.1729 11.0452C68.5039 11.3459 68.6695 11.7321 68.6695 12.2038C68.6695 12.6755 68.5039 13.0645 68.1729 13.3735C67.8419 13.6824 67.4198 13.8369 66.9039 13.8369ZM65.4915 26.4824V15.5362H68.3164V26.4824H65.4915Z" fill="currentColor"/>
<path d="M70.1701 26.4824V10.5928H72.995V26.4824H70.1701Z" fill="currentColor"/>
<path d="M72.7081 31.3376V28.9321H73.5688C74.0543 28.9321 74.3991 28.8355 74.606 28.6452C74.8129 28.4548 74.915 28.1293 74.915 27.6742V15.5362H77.7398V27.6742C77.7398 28.9983 77.406 29.939 76.7357 30.499C76.0653 31.059 75.1577 31.3376 74.0101 31.3376H72.7081ZM76.3495 13.8369C75.8336 13.8369 75.4115 13.6824 75.0805 13.3735C74.7495 13.0645 74.5839 12.6755 74.5839 12.2038C74.5839 11.7321 74.7495 11.3459 75.0805 11.0452C75.4115 10.7445 75.8336 10.5928 76.3495 10.5928C76.8653 10.5928 77.2874 10.7445 77.6184 11.0452C77.9495 11.3459 78.115 11.7321 78.115 12.2038C78.115 12.6755 77.9495 13.0645 77.6184 13.3735C77.2874 13.6824 76.8653 13.8369 76.3495 13.8369Z" fill="currentColor"/>
<path d="M84.9122 26.7473C83.8088 26.7473 82.8295 26.5128 81.977 26.041C81.1246 25.5693 80.4543 24.9073 79.9688 24.0548C79.4833 23.2024 79.2405 22.2148 79.2405 21.0976C79.2405 19.9804 79.4805 18.9569 79.9577 18.0742C80.435 17.1914 81.097 16.5045 81.9439 16.0107C82.7908 15.5169 83.7867 15.2714 84.9343 15.2714C86.0074 15.2714 86.9564 15.5059 87.7812 15.9776C88.606 16.4493 89.2488 17.0921 89.7122 17.9086C90.1757 18.7252 90.4074 19.6328 90.4074 20.6342C90.4074 20.7969 90.4046 20.9652 90.3964 21.1417C90.3881 21.3183 90.377 21.5031 90.3633 21.6935H82.0433C82.1012 22.5459 82.3991 23.2162 82.937 23.7017C83.475 24.1873 84.126 24.43 84.8902 24.43C85.4639 24.43 85.9467 24.3004 86.3357 24.0438C86.7246 23.7873 87.017 23.4507 87.2074 23.0397H90.0764C89.8695 23.7321 89.5274 24.361 89.0501 24.9266C88.5729 25.4921 87.9826 25.939 87.2846 26.2617C86.5867 26.5845 85.795 26.7473 84.9122 26.7473ZM84.9343 17.5666C84.2419 17.5666 83.6322 17.7624 83.1026 18.1514C82.5729 18.5404 82.2336 19.1335 82.0874 19.9279H87.5384C87.4943 19.2079 87.2295 18.6342 86.7439 18.2066C86.2584 17.779 85.6543 17.5666 84.9343 17.5666Z" fill="currentColor"/>
<path d="M96.366 26.4824C95.2184 26.4824 94.2998 26.2038 93.6074 25.6438C92.915 25.0838 92.5701 24.0907 92.5701 22.6645V17.8976H90.6943V15.5362H92.5701L92.9012 12.601H95.395V15.5362H98.3522V17.8976H95.395V22.6866C95.395 23.2162 95.5081 23.5804 95.737 23.779C95.966 23.9776 96.3577 24.0769 96.9177 24.0769H98.286V26.4824H96.366Z" fill="currentColor"/>
<path d="M37.4058 7.76245C37.0086 7.76245 36.6582 7.69349 36.3548 7.55831C36.0513 7.42314 35.8113 7.22728 35.6375 6.97073C35.4637 6.71418 35.3727 6.40521 35.3672 6.04107H36.4099C36.421 6.29487 36.512 6.50452 36.683 6.67831C36.8541 6.85211 37.0941 6.93762 37.3975 6.93762C37.6596 6.93762 37.8693 6.87418 38.0237 6.74728C38.1782 6.62038 38.2555 6.45211 38.2555 6.24245C38.2555 6.0328 38.1865 5.84797 38.0513 5.72383C37.9162 5.59969 37.7341 5.50038 37.5079 5.42314C37.2817 5.3459 37.0389 5.26314 36.7824 5.17487C36.3658 5.03142 36.0458 4.84659 35.8279 4.61762C35.6099 4.39142 35.4996 4.09073 35.4996 3.7128C35.4941 3.3928 35.5713 3.11969 35.7286 2.89073C35.8858 2.66176 36.101 2.48521 36.3741 2.35831C36.6472 2.23142 36.9617 2.16797 37.3175 2.16797C37.6734 2.16797 37.9962 2.23142 38.272 2.36107C38.5479 2.49073 38.763 2.67004 38.9203 2.90176C39.0775 3.13349 39.1603 3.40935 39.1713 3.72935H38.112C38.1065 3.539 38.0348 3.37073 37.8913 3.22452C37.7479 3.07831 37.552 3.00383 37.301 3.00383C37.0858 2.99831 36.9037 3.05073 36.7575 3.16107C36.6113 3.27142 36.5368 3.43142 36.5368 3.64383C36.5368 3.82314 36.5948 3.96659 36.7079 4.07142C36.821 4.17624 36.9755 4.26728 37.1713 4.339C37.3672 4.41073 37.5906 4.48797 37.8444 4.57073C38.112 4.66452 38.3575 4.77211 38.5782 4.89624C38.7989 5.02038 38.9782 5.18314 39.1106 5.38728C39.2458 5.59142 39.312 5.85073 39.312 6.17073C39.312 6.45487 39.2403 6.71693 39.0968 6.95969C38.9534 7.20245 38.7382 7.39556 38.4568 7.54176C38.1727 7.68797 37.8251 7.76245 37.4141 7.76245H37.4058Z" fill="currentColor"/>
<path d="M41.7148 7.66866V2.26176H42.7024V7.66866H41.7148Z" fill="currentColor"/>
<path d="M45.2982 7.66866V2.26176H46.2858L48.8265 6.06866V2.26176H49.8141V7.66866H48.8265L46.2858 3.86728V7.66866H45.2982Z" fill="currentColor"/>
<path d="M54.8624 7.76245C54.3162 7.76245 53.8472 7.64659 53.4555 7.41211C53.0637 7.17762 52.7631 6.85211 52.5506 6.43004C52.3382 6.01073 52.2334 5.52521 52.2334 4.97349C52.2334 4.42176 52.3382 3.93624 52.5506 3.51418C52.7603 3.09211 53.0637 2.76383 53.4555 2.52659C53.8472 2.28935 54.3162 2.17073 54.8624 2.17073C55.5106 2.17073 56.0431 2.33073 56.4568 2.65349C56.8706 2.97624 57.1299 3.4259 57.232 4.00797H56.1424C56.0762 3.71556 55.9327 3.48383 55.7148 3.31556C55.4968 3.14728 55.2072 3.06452 54.8458 3.06452C54.3465 3.06452 53.9548 3.23556 53.6706 3.57487C53.3865 3.91418 53.2458 4.38038 53.2458 4.97349C53.2458 5.56659 53.3865 6.03004 53.6706 6.36659C53.9548 6.70314 54.3465 6.87142 54.8458 6.87142C55.2072 6.87142 55.4968 6.79142 55.7148 6.63693C55.9327 6.47969 56.0762 6.26176 56.1424 5.98314H57.232C57.1299 6.54038 56.8706 6.97349 56.4568 7.28797C56.0431 7.60245 55.5106 7.75969 54.8624 7.75969V7.76245Z" fill="currentColor"/>
<path d="M59.6513 7.66866V2.26176H60.6389V4.51004H63.0637V2.26176H64.0513V7.66866H63.0637V5.3128H60.6389V7.66866H59.6513Z" fill="currentColor"/>
<path d="M25.7941 2.89673C25.1182 2.21811 24.1058 2.01122 23.2148 2.36708L3.35823 10.3091C2.47271 10.665 1.89616 11.476 1.85754 12.4305C1.81892 13.385 2.32374 14.2402 3.17616 14.6678L9.05478 17.6057L11.1927 15.4678L5.41064 12.5767L23.2451 5.44294L16.1113 23.2774L13.2203 17.4954L11.0824 19.6333L14.0203 25.5119C14.4313 26.334 15.2424 26.8333 16.1527 26.8333C16.1858 26.8333 16.2217 26.8333 16.2575 26.8333C17.212 26.7947 18.0231 26.2181 18.3789 25.3326L26.321 5.47329C26.6768 4.58501 26.4699 3.5726 25.7913 2.89398L25.7941 2.89673Z" fill="#857AEB"/>
</svg>

<svg viewBox="0 0 99 32" fill="none" xmlns="http://www.w3.org/2000/svg"><path d="M35.434 26.482V11.034h3.354l4.922 9.799 4.855-9.799h3.354v15.448h-2.825V15.823l-4.303 8.453h-2.23l-4.303-8.453v10.66h-2.824Zm22.091.265c-.941 0-1.713-.151-2.318-.452-.604-.3-1.05-.704-1.346-1.203a3.191 3.191 0 0 1-.441-1.655c0-1.015.397-1.84 1.191-2.472.795-.631 1.987-.949 3.576-.949h2.78v-.265c0-.75-.212-1.302-.64-1.655-.427-.353-.957-.53-1.589-.53-.573 0-1.073.136-1.5.409-.428.273-.693.673-.795 1.203h-2.758c.074-.795.342-1.487.805-2.075a4.52 4.52 0 0 1 1.799-1.357c.736-.317 1.558-.475 2.471-.475 1.56 0 2.79.39 3.686 1.17.897.78 1.346 1.884 1.346 3.31v6.731h-2.405l-.265-1.765a4.08 4.08 0 0 1-1.357 1.457c-.582.383-1.327.573-2.24.573Zm.64-2.207c.808 0 1.437-.264 1.886-.794.45-.53.732-1.184.85-1.964h-2.405c-.75 0-1.289.135-1.611.408-.323.273-.486.607-.486 1.004 0 .428.163.759.486.993.322.235.75.353 1.28.353Zm8.739-10.703c-.516 0-.938-.155-1.269-.463a1.53 1.53 0 0 1-.497-1.17c0-.472.166-.858.497-1.159.331-.3.753-.452 1.269-.452.516 0 .938.152 1.269.452.33.3.496.687.496 1.159 0 .471-.165.86-.496 1.17-.331.308-.753.463-1.27.463Zm-1.412 12.645V15.536h2.824v10.946h-2.825Zm4.678 0v-15.89h2.825v15.89H70.17Zm2.538 4.856v-2.406h.86c.486 0 .831-.096 1.038-.287.207-.19.309-.516.309-.97v-12.14h2.825v12.138c0 1.324-.334 2.265-1.004 2.825-.67.56-1.578.839-2.726.839h-1.302Zm3.642-17.501c-.516 0-.938-.155-1.27-.463a1.53 1.53 0 0 1-.496-1.17c0-.472.165-.858.496-1.159.332-.3.754-.452 1.27-.452.515 0 .937.152 1.268.452.332.3.497.687.497 1.159 0 .471-.165.86-.497 1.17-.33.308-.753.463-1.268.463Zm8.562 12.91c-1.103 0-2.083-.234-2.935-.706a5.129 5.129 0 0 1-2.008-1.986c-.486-.853-.728-1.84-.728-2.957 0-1.118.24-2.141.717-3.024a5.201 5.201 0 0 1 1.986-2.063c.847-.494 1.843-.74 2.99-.74 1.073 0 2.022.235 2.847.707a5.072 5.072 0 0 1 1.931 1.93c.464.817.695 1.725.695 2.726 0 .163-.002.331-.01.508-.009.176-.02.361-.034.552h-8.32c.058.852.356 1.522.894 2.008.538.485 1.189.728 1.953.728.574 0 1.057-.13 1.446-.386a2.39 2.39 0 0 0 .871-1.004h2.87a5.214 5.214 0 0 1-1.027 1.887 5.058 5.058 0 0 1-1.765 1.335c-.698.322-1.49.485-2.373.485Zm.022-9.18c-.692 0-1.302.195-1.831.584-.53.39-.87.983-1.016 1.777h5.451c-.044-.72-.308-1.294-.794-1.721-.486-.428-1.09-.64-1.81-.64Zm11.432 8.915c-1.148 0-2.066-.278-2.759-.838-.692-.56-1.037-1.553-1.037-2.98v-4.766h-1.876v-2.362h1.876l.331-2.935h2.494v2.935h2.957v2.362h-2.957v4.789c0 .53.113.893.342 1.092.229.199.62.298 1.18.298h1.369v2.405h-1.92Zm-58.96-18.72a2.56 2.56 0 0 1-1.051-.204 1.66 1.66 0 0 1-.717-.587 1.663 1.663 0 0 1-.27-.93h1.042a.931.931 0 0 0 .273.637c.171.174.411.26.715.26.262 0 .471-.064.626-.19a.62.62 0 0 0 .231-.506.688.688 0 0 0-.204-.518 1.519 1.519 0 0 0-.543-.3c-.226-.078-.47-.16-.726-.25-.416-.143-.736-.327-.954-.556-.218-.227-.328-.527-.328-.905-.006-.32.071-.593.229-.822.157-.23.372-.406.645-.533s.588-.19.944-.19c.355 0 .678.063.954.193.276.13.491.309.648.54.157.232.24.508.251.828h-1.059a.729.729 0 0 0-.22-.504c-.144-.147-.34-.221-.591-.221a.84.84 0 0 0-.544.157c-.146.11-.22.27-.22.483 0 .18.058.323.17.427.114.105.268.196.464.268.196.072.42.149.673.232a4.6 4.6 0 0 1 .734.325c.22.124.4.287.533.491.135.204.201.464.201.784 0 .284-.072.546-.215.789a1.548 1.548 0 0 1-.64.582c-.284.146-.632.22-1.043.22h-.008Zm4.309-.093V2.262h.987v5.407h-.987Zm3.583 0V2.262h.988l2.54 3.807V2.262h.988v5.407h-.987l-2.541-3.802V7.67h-.988Zm9.564.093c-.546 0-1.015-.115-1.407-.35a2.344 2.344 0 0 1-.904-.982c-.213-.42-.318-.905-.318-1.457 0-.551.105-1.037.318-1.459.21-.422.513-.75.904-.987.392-.238.861-.356 1.407-.356.649 0 1.181.16 1.595.482.414.323.673.773.775 1.355h-1.09a1.172 1.172 0 0 0-.427-.692c-.218-.169-.508-.251-.87-.251-.498 0-.89.17-1.174.51-.285.34-.425.805-.425 1.398 0 .594.14 1.057.425 1.394.284.336.675.504 1.175.504.361 0 .65-.08.869-.234.218-.157.361-.375.427-.654h1.09c-.102.557-.361.99-.775 1.305-.414.314-.946.472-1.595.472v.002Zm4.789-.093V2.262h.988V4.51h2.425V2.262h.987v5.407h-.987V5.313h-2.425v2.356h-.988Z" fill="currentColor"/><path d="M25.794 2.897a2.385 2.385 0 0 0-2.58-.53L3.359 10.31a2.365 2.365 0 0 0-1.5 2.122 2.366 2.366 0 0 0 1.318 2.237l5.879 2.938 2.138-2.138-5.782-2.891 17.834-7.134-7.134 17.834-2.89-5.782-2.139 2.138 2.938 5.879a2.361 2.361 0 0 0 2.133 1.321h.105a2.365 2.365 0 0 0 2.12-1.5l7.943-19.86c.356-.888.149-1.9-.53-2.579l.003.003Z" fill="#857AEB"/></svg>
